icons/linear-ele-office-doc-document-delete-close.svg

<svg xmlns="http://www.w3.org/2000/svg" width="32px" height="32px" viewBox="0 0 32 32" version="1.1">
    <title>linear-ele-office-doc-document-delete-close</title>
    <g id="linear-ele-office-doc-document-delete-close" stroke-width="1" fill-rule="evenodd">
        <path d="M20,2 C20.2652165,2 20.5195704,2.10535684 20.7071068,2.29289322 L27.7071068,9.29289322 C27.8946432,9.4804296 28,9.73478351 28,10 L28,29 C28,29.5522847 27.5522847,30 27,30 L5,30 C4.44771525,30 4,29.5522847 4,29 L4,3 C4,2.44771525 4.44771525,2 5,2 L20,2 Z M18,4 L6,4 L6,28 L26,28 L26,12 L19,12 C18.4477153,12 18,11.5522847 18,11 L18,4 Z M13.7071068,15.2928932 L16,17.585 L18.2928932,15.2928932 C18.6834175,14.9023689 19.3165825,14.9023689 19.7071068,15.2928932 C20.0976311,15.6834175 20.0976311,16.3165825 19.7071068,16.7071068 L17.415,19 L19.7071068,21.2928932 C20.0976311,21.6834175 20.0976311,22.3165825 19.7071068,22.7071068 C19.3165825,23.0976311 18.6834175,23.0976311 18.2928932,22.7071068 L16,20.415 L13.7071068,22.7071068 C13.3165825,23.0976311 12.6834175,23.0976311 12.2928932,22.7071068 C11.9023689,22.3165825 11.9023689,21.6834175 12.2928932,21.2928932 L14.585,19 L12.2928932,16.7071068 C11.9023689,16.3165825 11.9023689,15.6834175 12.2928932,15.2928932 C12.6834175,14.9023689 13.3165825,14.9023689 13.7071068,15.2928932 Z M20,4.415 L20,10 L25.585,10 L20,4.415 Z" id="&#24418;&#29366;" fill-rule="nonzero" />
    </g>
</svg>

<svg xmlns="http://www.w3.org/2000/svg" viewBox="0 0 32 32"><path fill="currentColor" d="M20 2a1 1 0 0 1 .707.293l7 7A1 1 0 0 1 28 10v19a1 1 0 0 1-1 1H5a1 1 0 0 1-1-1V3a1 1 0 0 1 1-1zm-2 2H6v24h20V12h-7a1 1 0 0 1-1-1zm-4.293 11.293L16 17.585l2.293-2.292a1 1 0 0 1 1.414 1.414L17.415 19l2.292 2.293a1 1 0 0 1-1.414 1.414L16 20.415l-2.293 2.292a1 1 0 0 1-1.414-1.414L14.585 19l-2.292-2.293a1 1 0 0 1 1.414-1.414M20 4.415V10h5.585z"/></svg>
